SVG_Azure_All/Application Business Central.svg

<?xml version="1.0" encoding="UTF-8" standalone="no"?>
<!-- Generated by Microsoft Visio, SVG Export Application Business Central.svg Page-1 -->

<svg
   xmlns:dc="http://purl.org/dc/elements/1.1/"
   xmlns:cc="http://creativecommons.org/ns#"
   xmlns:rdf="http://www.w3.org/1999/02/22-rdf-syntax-ns#"
   xmlns:svg="http://www.w3.org/2000/svg"
   xmlns="http://www.w3.org/2000/svg"
   xmlns:sodipodi="http://sodipodi.sourceforge.net/DTD/sodipodi-0.dtd"
   xmlns:inkscape="http://www.inkscape.org/namespaces/inkscape"
   width="0.78740215in"
   height="0.78741872in"
   viewBox="0 0 56.693003 56.693995"
   xml:space="preserve"
   class="st7"
   version="1.1"
   id="svg69"
   sodipodi:docname="Application Business Central.svg"
   style="font-size:12px;overflow:visible;color-interpolation-filters:sRGB;fill:none;fill-rule:evenodd;stroke-linecap:square;stroke-miterlimit:3"
   inkscape:version="0.92.5 (2060ec1f9f, 2020-04-08)"><metadata
   id="metadata73"><rdf:RDF><cc:Work
       rdf:about=""><dc:format>image/svg+xml</dc:format><dc:type
         rdf:resource="http://purl.org/dc/dcmitype/StillImage" /></cc:Work></rdf:RDF></metadata><sodipodi:namedview
   pagecolor="#ffffff"
   bordercolor="#666666"
   borderopacity="1"
   objecttolerance="10"
   gridtolerance="10"
   guidetolerance="10"
   inkscape:pageopacity="0"
   inkscape:pageshadow="2"
   inkscape:window-width="640"
   inkscape:window-height="480"
   id="namedview71"
   showgrid="false"
   inkscape:zoom="1.824664"
   inkscape:cx="37.795275"
   inkscape:cy="19.31511"
   inkscape:window-x="0"
   inkscape:window-y="0"
   inkscape:window-maximized="0"
   inkscape:current-layer="svg69" />
	<style
   type="text/css"
   id="style2">
	<![CDATA[
		.st1 {fill:url(#grad0-5);stroke:none;stroke-linecap:butt;stroke-width:6.29527}
		.st2 {fill:#9df3f9;stroke:none;stroke-linecap:butt;stroke-width:6.29527}
		.st3 {fill:#82ebf1;stroke:none;stroke-linecap:butt;stroke-width:6.29527}
		.st4 {fill:url(#grad0-15);stroke:none;stroke-linecap:butt;stroke-width:6.29527}
		.st5 {fill:url(#grad0-19);stroke:none;stroke-linecap:butt;stroke-width:6.29527}
		.st6 {fill:url(#grad0-23);stroke:none;stroke-linecap:butt;stroke-width:6.29527}
		.st7 {fill:none;fill-rule:evenodd;font-size:12px;overflow:visible;stroke-linecap:square;stroke-miterlimit:3}
	]]>
	</style>

	<defs
   id="Patterns_And_Gradients">
		<linearGradient
   id="grad0-5"
   x1="0"
   y1="40.311001"
   x2="56.693001"
   y2="40.311001"
   gradientUnits="userSpaceOnUse">
			<stop
   offset="0"
   stop-color="#009ca8"
   stop-opacity="1"
   id="stop4" />
			<stop
   offset="1"
   stop-color="#007d85"
   stop-opacity="1"
   id="stop6" />
		</linearGradient>
		<linearGradient
   id="grad0-15"
   x1="-1.7763568e-15"
   y1="66.295298"
   x2="30.708599"
   y2="66.295298"
   gradientUnits="userSpaceOnUse">
			<stop
   offset="0"
   stop-color="#36e3ee"
   stop-opacity="1"
   id="stop9" />
			<stop
   offset="1"
   stop-color="#00b1be"
   stop-opacity="1"
   id="stop11" />
		</linearGradient>
		<linearGradient
   id="grad0-19"
   x1="0"
   y1="112.15595"
   x2="19.186886"
   y2="112.15595"
   gradientTransform="scale(1.3540498,0.73852526)"
   gradientUnits="userSpaceOnUse">
			<stop
   offset="0"
   stop-color="#d2f6f9"
   stop-opacity="1"
   id="stop14" />
			<stop
   offset="1"
   stop-color="#82ebf1"
   stop-opacity="1"
   id="stop16" />
			<stop
   offset="1"
   stop-color="#82ebf1"
   stop-opacity="1"
   id="stop18" />
		</linearGradient>
		<linearGradient
   id="grad0-23"
   x1="0"
   y1="86.37"
   x2="10.63"
   y2="86.37"
   gradientUnits="userSpaceOnUse">
			<stop
   offset="0"
   stop-color="#9aeef3"
   stop-opacity="1"
   id="stop21" />
			<stop
   offset="1"
   stop-color="#82ebf1"
   stop-opacity="1"
   id="stop23" />
		</linearGradient>
	</defs>
	<g
   id="g67"
   transform="translate(-6.29527,-6.2942718)">
		<title
   id="title27">Page-1</title>
		<g
   id="group9871-1"
   transform="translate(6.29527,-34.0157)">
			<title
   id="title29">Application Business Central</title>
			<g
   id="shape9872-2"
   transform="translate(3.38086e-6,-6.69792e-6)">
				<title
   id="title31">circle5</title>
				<circle
   cx="28.3465"
   cy="68.657501"
   class="st1"
   id="ellipse33"
   r="28.3465"
   style="fill:url(#grad0-5);stroke:none;stroke-width:6.29526997;stroke-linecap:butt" />
			</g>
			<g
   id="shape9873-6"
   transform="translate(23.0315,-43.1102)">
				<title
   id="title36">path7</title>
				<path
   d="m 7.68,93.5 c 1.75,-0.87 2.95,-2.68 2.95,-4.76 0,-2.94 -2.38,-5.32 -5.32,-5.32 C 2.38,83.42 0,85.8 0,88.74 0,90.82 1.2,92.63 2.95,93.5 V 97 h 4.73 z"
   class="st2"
   id="path38"
   inkscape:connector-curvature="0"
   style="fill:#9df3f9;stroke:none;stroke-width:6.29526997;stroke-linecap:butt" />
			</g>
			<g
   id="shape9874-8"
   transform="translate(23.0315)">
				<title
   id="title41">path9</title>
				<path
   d="M 2.95,86.93 C 1.2,87.8 0,89.6 0,91.69 0,94.62 2.38,97 5.31,97 c 2.94,0 5.32,-2.38 5.32,-5.31 0,-2.09 -1.2,-3.89 -2.95,-4.76 V 83.42 H 2.95 Z"
   class="st3"
   id="path43"
   inkscape:connector-curvature="0"
   style="fill:#82ebf1;stroke:none;stroke-width:6.29526997;stroke-linecap:butt" />
			</g>
			<g
   id="shape9875-10"
   transform="translate(0,-23.0315)">
				<title
   id="title46">path11</title>
				<path
   d="M 10.08,89.33 C 9.21,87.58 7.4,86.37 5.31,86.37 2.38,86.37 0,88.75 0,91.69 0,94.62 2.38,97 5.31,97 c 2.09,0 3.9,-1.2 4.77,-2.95 h 3.5 v -4.72 z"
   class="st2"
   id="path48"
   inkscape:connector-curvature="0"
   style="fill:#9df3f9;stroke:none;stroke-width:6.29526997;stroke-linecap:butt" />
			</g>
			<g
   id="shape9876-12"
   transform="translate(12.9921,-12.9921)">
				<title
   id="title51">circle29</title>
				<circle
   cx="15.3543"
   cy="81.649597"
   class="st4"
   id="ellipse53"
   r="15.3543"
   style="fill:url(#grad0-15);stroke:none;stroke-width:6.29526997;stroke-linecap:butt" />
			</g>
			<g
   id="shape9877-16"
   transform="translate(21.2598,-21.2598)">
				<title
   id="title56">path31</title>
				<path
   d="M 13.77,92.28 C 12.8,95.03 10.17,97 7.09,97 3.17,97 0,93.83 0,89.92 0,86 3.17,82.83 7.09,82.83 c 3.08,0 5.71,1.97 6.68,4.73 h 12.21 v 4.72 z"
   class="st5"
   id="path58"
   inkscape:connector-curvature="0"
   style="fill:url(#grad0-19);stroke:none;stroke-width:6.29526997;stroke-linecap:butt" />
			</g>
			<g
   id="shape9878-20"
   transform="translate(46.063,-23.0314)">
				<title
   id="title61">path33</title>
				<path
   d="M 5.31,97 C 2.38,97 0,94.62 0,91.69 c 0,-2.94 2.38,-5.32 5.31,-5.32 2.94,0 5.32,2.38 5.32,5.32 0,2.93 -2.38,5.31 -5.32,5.31 z"
   class="st6"
   id="path63"
   inkscape:connector-curvature="0"
   style="fill:url(#grad0-23);stroke:none;stroke-width:6.29526997;stroke-linecap:butt" />
			</g>
		</g>
	</g>
</svg>

<?xml version="1.0" encoding="UTF-8" standalone="no"?>
<!DOCTYPE svg PUBLIC "-//W3C//DTD SVG 1.1//EN" "http://www.w3.org/Graphics/SVG/1.1/DTD/svg11.dtd">
<!-- Generated by Microsoft Visio, SVG Export Application Business Central.svg Page-1 -->
<svg xmlns="http://www.w3.org/2000/svg" xmlns:xlink="http://www.w3.org/1999/xlink" xmlns:ev="http://www.w3.org/2001/xml-events"
		width="0.96227in" height="1.34728in" viewBox="0 0 69.2835 97.0039" xml:space="preserve" color-interpolation-filters="sRGB"
		class="st7">
	<style type="text/css">
	<![CDATA[
		.st1 {fill:url(#grad0-5);stroke:none;stroke-linecap:butt;stroke-width:6.29527}
		.st2 {fill:#9df3f9;stroke:none;stroke-linecap:butt;stroke-width:6.29527}
		.st3 {fill:#82ebf1;stroke:none;stroke-linecap:butt;stroke-width:6.29527}
		.st4 {fill:url(#grad0-15);stroke:none;stroke-linecap:butt;stroke-width:6.29527}
		.st5 {fill:url(#grad0-19);stroke:none;stroke-linecap:butt;stroke-width:6.29527}
		.st6 {fill:url(#grad0-23);stroke:none;stroke-linecap:butt;stroke-width:6.29527}
		.st7 {fill:none;fill-rule:evenodd;font-size:12px;overflow:visible;stroke-linecap:square;stroke-miterlimit:3}
	]]>
	</style>

	<defs id="Patterns_And_Gradients">
		<linearGradient id="grad0-5" x1="0" y1="0" x2="1" y2="0" gradientTransform="rotate(55.728831936102 0.5 0.5)">
			<stop offset="0" stop-color="#009ca8" stop-opacity="1"/>
			<stop offset="1" stop-color="#007d85" stop-opacity="1"/>
		</linearGradient>
		<linearGradient id="grad0-15" x1="0" y1="0" x2="1" y2="0" gradientTransform="rotate(58.940583787754 0.5 0.5)">
			<stop offset="0" stop-color="#36e3ee" stop-opacity="1"/>
			<stop offset="1" stop-color="#00b1be" stop-opacity="1"/>
		</linearGradient>
		<linearGradient id="grad0-19" x1="0" y1="0" x2="1" y2="0" gradientTransform="rotate(58.698430251387 0.5 0.5)">
			<stop offset="0" stop-color="#d2f6f9" stop-opacity="1"/>
			<stop offset="1" stop-color="#82ebf1" stop-opacity="1"/>
			<stop offset="1" stop-color="#82ebf1" stop-opacity="1"/>
		</linearGradient>
		<linearGradient id="grad0-23" x1="0" y1="0" x2="1" y2="0" gradientTransform="rotate(-160.44169607983 0.5 0.5)">
			<stop offset="0" stop-color="#9aeef3" stop-opacity="1"/>
			<stop offset="1" stop-color="#82ebf1" stop-opacity="1"/>
		</linearGradient>
	</defs>
	<g>
		<title>Page-1</title>
		<g id="group9666-1" transform="translate(6.29527,-34.0157)">
			<title>Application Business Central</title>
			<g id="shape9667-2" transform="translate(3.38086E-06,-6.69792E-06)">
				<title>circle5</title>
				<ellipse cx="28.3465" cy="68.6575" rx="28.3465" ry="28.3465" class="st1"/>
			</g>
			<g id="shape9668-6" transform="translate(23.0315,-43.1102)">
				<title>path7</title>
				<path d="M7.68 93.5 C9.43 92.63 10.63 90.82 10.63 88.74 C10.63 85.8 8.25 83.42 5.31 83.42 C2.38 83.42 0 85.8 0 88.74
							 C0 90.82 1.2 92.63 2.95 93.5 L2.95 97 L7.68 97 L7.68 93.5 Z" class="st2"/>
			</g>
			<g id="shape9669-8" transform="translate(23.0315,2.84217E-13)">
				<title>path9</title>
				<path d="M2.95 86.93 C1.2 87.8 0 89.6 0 91.69 C0 94.62 2.38 97 5.31 97 C8.25 97 10.63 94.62 10.63 91.69 C10.63 89.6
							 9.43 87.8 7.68 86.93 L7.68 83.42 L2.95 83.42 L2.95 86.93 Z" class="st3"/>
			</g>
			<g id="shape9670-10" transform="translate(-2.84772E-13,-23.0315)">
				<title>path11</title>
				<path d="M10.08 89.33 C9.21 87.58 7.4 86.37 5.31 86.37 C2.38 86.37 0 88.75 0 91.69 C0 94.62 2.38 97 5.31 97 C7.4
							 97 9.21 95.8 10.08 94.05 L13.58 94.05 L13.58 89.33 L10.08 89.33 Z" class="st2"/>
			</g>
			<g id="shape9671-12" transform="translate(12.9921,-12.9921)">
				<title>circle29</title>
				<ellipse cx="15.3543" cy="81.6496" rx="15.3543" ry="15.3543" class="st4"/>
			</g>
			<g id="shape9672-16" transform="translate(21.2598,-21.2598)">
				<title>path31</title>
				<path d="M13.77 92.28 C12.8 95.03 10.17 97 7.09 97 C3.17 97 0 93.83 0 89.92 C0 86 3.17 82.83 7.09 82.83 C10.17 82.83
							 12.8 84.8 13.77 87.56 L25.98 87.56 L25.98 92.28 L13.77 92.28 Z" class="st5"/>
			</g>
			<g id="shape9673-20" transform="translate(46.063,-23.0314)">
				<title>path33</title>
				<path d="M5.31 97 C2.38 97 0 94.62 0 91.69 C0 88.75 2.38 86.37 5.31 86.37 C8.25 86.37 10.63 88.75 10.63 91.69 C10.63
							 94.62 8.25 97 5.31 97 Z" class="st6"/>
			</g>
		</g>
	</g>
</svg>
